X:71
T:Tam Lin
T:Howling Wind
T:Tam Lyn
T:Glasgow
M:4/4
L:1/8
R:reel
D:Highland Sun: Celtic Crossover
Z:Michael Abraham Shulman
K:Dm
|:A,DDD A,DFD|B,2DB, FB,DB,|CEEE CEGE|FEDC DEDC|
A,DDD A,DFD|B,2DB, FB,DB,|CEEE CEGE|1 FEDC DEDC:|2 FEDC DFAc|
|:d^cd=c FADA|d^cd=c FDFA|c~G3 c~G3|c=BcA dFAc|
d^cd=c FADA|d^cd=c FDG,A,|B,2B,C DCDE|FEDC D4:|
